tracks/perl5.svg

<?xml version="1.0" encoding="UTF-8" standalone="no"?>
<svg
   width="96"
   height="96"
   viewBox="0 0 96 96"
   fill="none"
   version="1.1"
   id="svg1352"
   sodipodi:docname="perl5.svg"
   inkscape:version="1.2.2 (b0a8486541, 2022-12-01)"
   xmlns:inkscape="http://www.inkscape.org/namespaces/inkscape"
   xmlns:sodipodi="http://sodipodi.sourceforge.net/DTD/sodipodi-0.dtd"
   xmlns="http://www.w3.org/2000/svg"
   xmlns:svg="http://www.w3.org/2000/svg">
  <defs
     id="defs1356" />
  <sodipodi:namedview
     id="namedview1354"
     pagecolor="#ffffff"
     bordercolor="#666666"
     borderopacity="1.0"
     inkscape:showpageshadow="2"
     inkscape:pageopacity="0.0"
     inkscape:pagecheckerboard="0"
     inkscape:deskcolor="#d1d1d1"
     showgrid="false"
     inkscape:zoom="4.9166667"
     inkscape:cx="12"
     inkscape:cy="57.559322"
     inkscape:window-width="1465"
     inkscape:window-height="795"
     inkscape:window-x="0"
     inkscape:window-y="0"
     inkscape:window-maximized="1"
     inkscape:current-layer="svg1352" />
  <path
     d="M44 2.30935C46.4752 0.880283 49.5248 0.880284 52 2.30935L85.5692 21.6905C88.0444 23.1196 89.5692 25.7606 89.5692 28.6187V67.3811C89.5692 70.2393 88.0444 72.8803 85.5692 74.3093L52 93.6905C49.5248 95.1196 46.4752 95.1196 44 93.6905L10.4308 74.3093C7.95558 72.8803 6.43079 70.2393 6.43079 67.3811V28.6187C6.43079 25.7606 7.95558 23.1196 10.4308 21.6905L44 2.30935Z"
     fill="white"
     id="path1334" />
  <path
     fill-rule="evenodd"
     clip-rule="evenodd"
     d="M84.1907 22.9024L51.5701 4.06896C49.3322 2.77689 46.575 2.77689 44.337 4.06896L11.7165 22.9024C9.47853 24.1945 8.09991 26.5824 8.09991 29.1665V66.8335C8.09991 69.4176 9.47853 71.8055 11.7165 73.0975L44.337 91.931C46.575 93.2231 49.3322 93.2231 51.5701 91.931L84.1907 73.0975C86.4286 71.8055 87.8072 69.4176 87.8072 66.8335V29.1665C87.8072 26.5824 86.4286 24.1945 84.1907 22.9024ZM53.1201 1.38436C49.923 -0.461454 45.9841 -0.461455 42.7871 1.38436L10.1665 20.2178C6.96946 22.0637 5 25.4749 5 29.1665V66.8335C5 70.5251 6.96946 73.9363 10.1665 75.7821L42.7871 94.6156C45.9841 96.4614 49.923 96.4614 53.1201 94.6156L85.7406 75.7821C88.9377 73.9363 90.9071 70.5251 90.9071 66.8335V29.1665C90.9071 25.4749 88.9377 22.0637 85.7406 20.2178L53.1201 1.38436Z"
     fill="#3A3C5B"
     id="path1336"
     style="fill:#0073a1;fill-opacity:1" />
  <path
     d="M71.9548 47.9549C71.9548 61.1848 61.2298 71.9098 47.9999 71.9098C34.77 71.9098 24.045 61.1848 24.045 47.9549C24.045 34.7249 34.77 24 47.9999 24C61.2298 24 71.9548 34.7249 71.9548 47.9549Z"
     fill="#3A3C5B"
     id="path1338" />
  <path
     d="M64.6876 49.7266C63.8804 44.6336 58.5371 41.3345 54.5581 38.8464C52.8199 37.7595 50.0019 36.3436 49.6374 34.0577C49.4869 33.113 49.4924 32.137 49.4608 31.1832C49.4484 30.8086 49.4426 30.432 49.4091 30.0583C49.3658 29.5763 48.8753 30.1704 48.6064 29.7498C47.9403 28.7084 48.1967 30.0654 48.2622 30.6129C48.4163 31.9009 48.5973 33.1851 48.5869 34.4852C48.567 36.9698 48.1666 39.3482 47.5472 41.7421C46.0962 47.3482 44.9517 53.092 46.387 58.8288C46.6844 60.0175 47.0716 61.1901 47.5802 62.3059C47.7339 62.6432 48.0282 63.5848 48.4513 63.6976C49.9749 64.1041 51.1269 64.2219 52.3437 65.3552C53.0992 66.0589 53.6658 65.6745 54.5594 65.3169C57.2662 64.2337 59.6119 62.8705 61.53 60.6397C64.2261 57.504 65.3384 53.8332 64.6876 49.7266ZM61.8247 54.8547C61.5845 56.9494 60.2706 58.8259 58.9288 60.3816C57.9562 61.5093 56.6403 62.9729 55.1982 63.4864C54.679 63.6712 55.2932 62.6326 55.3694 62.5182C55.8158 61.8469 56.3659 61.2546 56.8767 60.6335C57.6324 59.7151 58.2869 58.7511 58.7292 57.6388C60.1977 53.9473 59.864 49.4727 57.6907 46.1472C56.5075 44.3365 54.8835 42.8061 53.2464 41.41C52.4555 40.7354 51.6552 40.0975 50.9896 39.2903C50.8357 39.1039 49.4764 37.3244 49.8992 37.0613C50.0359 36.9762 53.0068 40.1013 53.3299 40.3453C54.5584 41.2729 55.8219 42.1306 56.9594 43.1751C58.4988 44.5894 60.0799 46.1692 60.9618 48.0926C61.9284 50.2001 62.0857 52.5759 61.8247 54.8547Z"
     fill="white"
     id="path1340" />
  <path
     d="M47.1176 24.6457C47.5636 24.9431 47.6626 26.6774 47.6626 28.263C47.6626 29.849 47.8113 36.6874 47.3158 38.521C46.8203 40.3545 45.6805 42.3863 44.4416 44.1703C43.2028 45.9542 41.7657 49.7203 41.8153 52.0493C41.8647 54.3786 43.2028 58.1941 44.2435 59.7799C45.288 61.3717 47.0612 63.5901 46.6716 64.0913C45.9777 64.9832 43.1533 61.9108 41.6667 60.1269C40.1799 58.3429 38.6933 54.7252 38.6438 51.9008C38.5942 49.0761 40.1799 46.4496 41.3197 44.8641C42.4596 43.2783 44.6894 40.5528 45.2841 39.314C45.8787 38.0751 46.523 36.7372 46.7212 35.0026C46.9194 33.2682 46.7212 27.0738 46.7212 27.0738C46.7212 27.0738 46.6716 24.3483 47.1176 24.6457Z"
     fill="white"
     id="path1342" />
  <path
     d="M45.9283 27.5693C46.3742 27.7675 46.4238 28.3125 46.4238 28.8578C46.4238 29.4028 46.2751 31.6328 46.1265 33.8132C45.9777 35.9936 44.2435 37.8272 42.955 39.1155C41.6666 40.4039 37.95 44.4179 36.5624 46.4002C35.1749 48.3823 34.4834 50.9933 34.6299 53.1891C34.7785 55.419 35.3235 57.5994 37.4049 59.9286C39.4863 62.2576 40.9233 63.3478 42.0134 63.893C43.1037 64.4378 44.194 64.8343 43.9461 65.33C43.6983 65.8254 42.6576 65.4785 41.5179 65.0823C40.3781 64.6856 36.5129 63.1002 34.2829 60.5728C32.053 58.0453 30.9133 54.6756 31.0124 51.4545C31.1113 48.2335 32.0035 46.8956 33.4901 44.8143C34.9767 42.733 39.0897 39.6608 40.3781 38.8679C41.6666 38.075 43.4009 36.737 44.2435 35.6468C45.0858 34.5565 45.5318 33.6644 45.4822 32.1778C45.4327 30.6913 45.5814 29.3532 45.5318 28.8578C45.4822 28.3623 45.4822 27.3712 45.9283 27.5693Z"
     fill="white"
     id="path1344" />
  <path
     d="M46.0524 66.4131C46.2539 66.405 46.1265 67.2782 45.7707 67.7116C45.4148 68.1448 44.8038 68.4052 44.7295 68.231C44.6549 68.0566 45.1708 67.9564 45.5495 67.5348C45.8972 67.1478 45.8053 66.4232 46.0524 66.4131Z"
     fill="white"
     id="path1346" />
  <path
     d="M50.063 66.3902C49.8616 66.3818 49.9889 67.255 50.3448 67.6882C50.7006 68.1214 51.3117 68.3821 51.3859 68.2078C51.4604 68.0334 50.9446 67.9332 50.5659 67.5116C50.2182 67.1248 50.3102 66.3999 50.063 66.3902Z"
     fill="white"
     id="path1348" />
  <path
     d="M48.2802 67.3374C48.2802 68.1001 48.3191 68.7182 48.1526 68.7182C47.9476 68.7182 48.0249 68.1001 48.0249 67.3374C48.0249 66.5749 47.9554 65.9565 48.1526 65.9565C48.3343 65.9565 48.2802 66.5749 48.2802 67.3374Z"
     fill="white"
     id="path1350" />
  <path
     fill="#ffffff"
     d="m 72.013617,47.948609 c 0,13.254454 -10.743573,23.998939 -23.996904,23.998939 -13.25333,0 -23.996903,-10.744485 -23.996903,-23.998939 0,-13.254449 10.743573,-23.998939 23.996903,-23.998939 13.253331,0 23.996904,10.74449 23.996904,23.998939 m 0,0"
     id="path4287"
     style="stroke-width:0.159986" />
  <path
     fill="#0073a1"
     d="m 48.461616,23.95335 a 24.028899,24.030938 0 0 0 -10.016788,1.99751 c -12.16275,5.30217 -17.725712,19.461541 -12.423996,31.626123 4.486301,10.221949 15.42105,16.007933 26.395314,13.964983 0.468099,-1.491134 0.85109,-3.126742 0.85109,-4.910503 0,-0.253109 -0.0069,-0.506857 -0.02064,-0.766846 0,0 0.85813,-1.464255 1.534202,-3.371691 0.837493,-2.358616 0.39435,-4.955941 -1.056023,-7.01153 -0.08447,-0.112475 -0.168778,-0.239349 -0.259967,-0.366224 -8.538258,0 -12.761553,-7.742857 -13.831335,-12.451929 -0.443143,-1.935593 -0.803096,-2.127903 -2.01174,-2.127903 -2.236512,0 -3.850064,-0.92764 -3.850064,-0.92764 -2.053495,0.94076 -2.972096,0.55757 -2.696452,-0.42494 -0.894284,-0.0981 -0.875567,-1.11307 -0.331157,-2.04551 0.681672,-1.16939 2.075892,-1.96376 3.744477,-1.96376 h 0.893485 c 1.844242,0 2.224193,-0.96475 4.124587,-0.7606 0.295482,0.0282 0.570487,0.0776 0.823574,0.14079 0.527932,-0.60509 1.126255,-0.85884 1.851601,-0.80956 0.112466,0.0139 0.182537,0.11263 0.161899,0.21823 l -0.176297,0.81676 c -0.06303,0.30255 0.02128,0.61949 0.239489,0.8238 1.534202,1.43562 2.414089,3.88543 3.399561,6.096055 1.597874,3.259056 5.454817,7.785256 11.642179,1.977993 C 61.798613,39.5933 64.427074,36.18849 68.747157,35.8541 64.521462,28.62194 56.835574,24.11286 48.461774,23.95335 M 38.26037,35.77411 c -0.633678,0 -1.265437,0.50877 -1.050584,0.59997 0.04815,0.02 0.129423,0.0338 0.222371,0.0445 0.06703,0.40558 0.407627,0.71869 0.831893,0.71869 0.424265,0 0.759262,-0.31311 0.824853,-0.71869 0.09311,-0.0107 0.174378,-0.0245 0.222372,-0.0445 0.215172,-0.0912 -0.417227,-0.59997 -1.051065,-0.59997 m 22.443185,23.100416 c -0.513694,0.01248 -0.974914,0.338705 -1.129295,0.838043 v 0.0069 c -0.766781,2.463731 -2.258908,5.64535 -2.258908,5.64535 0,0 -1.484928,2.629964 -2.32482,5.574794 a 24.156883,24.158932 0 0 0 2.653418,-0.937559 24.092891,24.094935 0 0 0 4.774423,-2.782277 15.517998,15.519314 0 0 0 -0.799416,-1.411137 c 0,0 -0.492417,-2.189344 -1.435975,-4.576118 q 0.214532,-0.593254 0.401228,-1.196107 l 0.0069,-0.02816 c 0.028,-0.0568 0.09183,-0.07744 0.161739,-0.07744 h 0.0075 c 0.492417,0.07744 1.01299,0.154874 1.618512,0.22495 0.183176,0.0144 0.373071,0.02816 0.563127,0.04928 0.23245,0.02128 0.457541,0.04192 0.689831,0.05632 0.05567,2.214942 1.016829,4.331648 1.259837,4.836586 a 24.028899,24.030938 0 0 0 4.41895,-5.957177 c -1.711139,0.195032 -3.803989,0.261269 -6.266071,0.01568 a 15.517998,15.519314 0 0 0 -0.591284,-0.05632 35.515417,35.51843 0 0 1 -1.527323,-0.211191 1.2798349,1.2799434 0 0 0 -0.222371,-0.0144"
     id="path4289"
     style="stroke-width:0.159986" />
</svg>

<svg xmlns="http://www.w3.org/2000/svg" width="96" height="96" fill="none">
    <path fill="#fff" d="M44 2.31a8 8 0 0 1 8 0l33.57 19.38a8 8 0 0 1 4 6.929V67.38a8 8 0 0 1-4 6.928L52 93.691a8 8 0 0 1-8 0L10.43 74.309a8 8 0 0 1-4-6.928V28.62a8 8 0 0 1 4-6.928z"/>
    <path fill="#3A3C5B" fill-rule="evenodd" d="M84.19 22.902 51.57 4.07a7.23 7.23 0 0 0-7.233 0l-32.62 18.833A7.23 7.23 0 0 0 8.1 29.166v37.668a7.23 7.23 0 0 0 3.617 6.263l32.62 18.834a7.23 7.23 0 0 0 7.233 0l32.62-18.833a7.23 7.23 0 0 0 3.617-6.264V29.166a7.23 7.23 0 0 0-3.616-6.264M53.12 1.384a10.33 10.33 0 0 0-10.333 0l-32.62 18.834A10.33 10.33 0 0 0 5 29.167v37.667c0 3.691 1.97 7.102 5.166 8.948l32.621 18.834a10.33 10.33 0 0 0 10.333 0l32.62-18.834a10.33 10.33 0 0 0 5.167-8.948V29.166c0-3.691-1.97-7.102-5.166-8.948z" clip-rule="evenodd" style="fill:#3a3c5b;fill-opacity:1"/>
    <path fill="#fff" d="M72.014 47.949c0 13.254-10.744 23.999-23.997 23.999s-23.997-10.745-23.997-24c0-13.254 10.743-23.998 23.997-23.998s23.997 10.744 23.997 23.999m0 0" style="stroke-width:.159986"/>
    <path fill="#0073a1" d="M48.462 23.953a24.029 24.03 0 0 0-10.017 1.998C26.282 31.253 20.719 45.412 26.02 57.577c4.486 10.222 15.42 16.008 26.395 13.965.468-1.491.851-3.127.851-4.91q0-.379-.02-.767s.858-1.465 1.534-3.372c.837-2.359.394-4.956-1.056-7.012-.085-.112-.169-.239-.26-.366-8.538 0-12.762-7.743-13.832-12.452-.443-1.935-.803-2.128-2.011-2.128-2.237 0-3.85-.927-3.85-.927-2.054.94-2.972.557-2.697-.425-.894-.098-.875-1.113-.33-2.046.68-1.17 2.075-1.964 3.744-1.964h.893c1.844 0 2.224-.964 4.125-.76q.443.044.823.14c.528-.604 1.126-.858 1.852-.809a.183.183 0 0 1 .162.218l-.177.817a.88.88 0 0 0 .24.824c1.534 1.436 2.414 3.885 3.4 6.096 1.597 3.259 5.454 7.785 11.642 1.978 4.35-4.084 6.978-7.489 11.298-7.823a24.02 24.02 0 0 0-20.285-11.9M38.26 35.773c-.633 0-1.265.509-1.05.6.048.02.13.034.222.045a.85.85 0 0 0 .832.718c.424 0 .76-.313.825-.718a1 1 0 0 0 .222-.045c.215-.091-.417-.6-1.05-.6m22.442 23.1a1.2 1.2 0 0 0-1.129.839v.006c-.767 2.464-2.259 5.646-2.259 5.646s-1.485 2.63-2.325 5.575a24.157 24.159 0 0 0 2.654-.938 24.093 24.095 0 0 0 4.774-2.782 15.518 15.52 0 0 0-.8-1.411s-.492-2.19-1.435-4.576q.214-.594.401-1.197l.007-.028c.028-.057.092-.077.162-.077h.007c.493.077 1.013.155 1.619.225q.276.02.563.049c.232.021.457.042.69.056.055 2.215 1.016 4.332 1.26 4.837a24.029 24.03 0 0 0 4.418-5.957c-1.71.195-3.804.261-6.266.015a15.518 15.52 0 0 0-.59-.056 35.515 35.518 0 0 1-1.528-.211 1.3 1.3 0 0 0-.223-.014" style="stroke-width:.159986;fill:#3a3c5b;fill-opacity:1"/>
</svg>
